X: 1156
T: The Providence (A67)
N: page A67
N: heptatonic
R: Reel
M: 4/4
L: 1/8
K: D
"D"EDEF DEFA|~d2 fd gdfd|ed (3Bcd AdBA|~B2 AF GFED|EDEF DEFA|
~d2 fd gdfd|ed (3Bcd AdBa|"G"~B2AG "D"FD D2:: e|fd ~d2 fdad|fd ~d2 "A"ecAg|"D"fd ~d2 fdad|
"A"ceag "D"fdde|fgag "A"gfec|"D"dBAF GFGB|"A"~A2 GB ABde|(3fga  eg "D"fdd:|
